src/next/cmd/lc_insertauthoritiesentry.svg

<svg enable-background="new 0 0 128 128" height="24" viewBox="0 0 24 24" width="24" xmlns="http://www.w3.org/2000/svg" xmlns:xlink="http://www.w3.org/1999/xlink"><linearGradient id="a" gradientTransform="matrix(1.6363601 0 0 1.4960829 -178.79304 -76.583031)" gradientUnits="userSpaceOnUse" x1="154.28152" x2="154.44292" y1="104.82231" y2="130.74823"><stop offset="0" stop-color="#4c78fd"/><stop offset="1" stop-color="#85a2fe"/></linearGradient><radialGradient id="b" cx="121.21739" cy="133.25926" gradientTransform="matrix(.93803929 0 0 .96715161 2.819296 2.117235)" gradientUnits="userSpaceOnUse" r="139.55859"><stop offset="0" stop-color="#c3c4c6"/><stop offset=".11366145" stop-color="#c5c6c7"/><stop offset=".20296688" stop-color="#ececec"/><stop offset=".2363" stop-color="#fafafa"/><stop offset=".2722" stop-color="#fff"/><stop offset=".5313" stop-color="#fafafa"/><stop offset=".8449" stop-color="#ebecec"/><stop offset="1" stop-color="#e1e2e3"/></radialGradient><radialGradient id="c" cx="136" cy="140" gradientUnits="userSpaceOnUse" r="139.5585"><stop offset="0" stop-color="#00537d"/><stop offset=".0151" stop-color="#186389"/><stop offset=".0558" stop-color="#558ca8"/><stop offset=".0964" stop-color="#89afc3"/><stop offset=".1357" stop-color="#b3ccd8"/><stop offset=".1737" stop-color="#d4e2e9"/><stop offset=".2099" stop-color="#ecf2f5"/><stop offset=".2435" stop-color="#fafcfd"/><stop offset=".2722" stop-color="#fff"/></radialGradient><filter id="d"><feGaussianBlur stdDeviation="1.0394514"/></filter><filter id="e"><feGaussianBlur stdDeviation=".50063244"/></filter><linearGradient id="f"><stop offset="0" stop-color="#fff"/><stop offset="1" stop-color="#555"/></linearGradient><linearGradient id="g"><stop offset="0"/><stop offset="1" stop-color="#333"/></linearGradient><linearGradient id="h"><stop offset="0"/><stop offset="1" stop-opacity="0"/></linearGradient><linearGradient id="i" gradientTransform="matrix(.753793 0 0 .6015334 -124.27428 8.136806)" gradientUnits="userSpaceOnUse" x1="25.439508" x2="25.379547" xlink:href="#h" y1="-4.66054" y2="-.227425"/><linearGradient id="j" gradientTransform="matrix(.753793 0 0 .30059615 -124.12137 -22.378011)" gradientUnits="userSpaceOnUse" x1="21.386999" x2="21.386999" xlink:href="#h" y1="-5.395907" y2="7.910984"/><linearGradient id="k" gradientTransform="matrix(.753793 0 0 .739087 -124.12137 -19.825392)" gradientUnits="userSpaceOnUse" spreadMethod="reflect" x1="24" x2="24" xlink:href="#f" y1="8" y2="-16.569082"/><radialGradient id="l" cx="24" cy="17.363621" gradientTransform="matrix(1.1872212 0 0 .55018351 -134.686 16.276698)" gradientUnits="userSpaceOnUse" r="10.839936" xlink:href="#g"/><linearGradient id="m" gradientTransform="matrix(.753793 0 0 .30059613 -84.121377 -22.378011)" gradientUnits="userSpaceOnUse" x1="25.559429" x2="26.693504" xlink:href="#h" y1="-.202853" y2="7.910984"/><linearGradient id="n" gradientTransform="matrix(.753793 0 0 .739087 -84.121377 -19.825392)" gradientUnits="userSpaceOnUse" spreadMethod="reflect" x1="24" x2="24" xlink:href="#f" y1="8" y2="-16.569082"/><radialGradient id="o" cx="24" cy="17.363621" gradientTransform="matrix(1.1872212 0 0 .36001 -94.686002 17.697623)" gradientUnits="userSpaceOnUse" r="10.839936" xlink:href="#g"/><linearGradient id="p" gradientTransform="matrix(0 -.753793 -.3005961 0 22.851133 44.060687)" gradientUnits="userSpaceOnUse" x1="25.559429" x2="26.693502" xlink:href="#h" y1="-.202853" y2="7.910984"/><linearGradient id="q" gradientTransform="matrix(.753793 0 0 .739087 -44.121375 -19.825392)" gradientUnits="userSpaceOnUse" spreadMethod="reflect" x1="24" x2="24" xlink:href="#f" y1="8" y2="-16.569082"/><radialGradient id="r" cx="24" cy="17.363621" gradientTransform="matrix(1.1872212 0 0 .36001 -54.686 17.697623)" gradientUnits="userSpaceOnUse" r="10.839936" xlink:href="#g"/><linearGradient id="s" gradientTransform="matrix(.9792 0 0 .9725 133.0002 20.8762)" gradientUnits="userSpaceOnUse" x1="120.21935" x2="111.65311" y1="87.939392" y2="119.90906"><stop offset="0" stop-color="#72d13d"/><stop offset=".3553" stop-color="#35ac1c"/><stop offset=".6194" stop-color="#0f9508"/><stop offset=".7574" stop-color="#008c00"/><stop offset="1" stop-color="#007a00"/></linearGradient><linearGradient id="t" gradientUnits="userSpaceOnUse" x1="120.21935" x2="111.65311" y1="-84.158562" y2="-52.188889"><stop offset="0" stop-color="#0968ef"/><stop offset="1" stop-color="#aecffc"/></linearGradient><linearGradient id="u" gradientUnits="userSpaceOnUse" x1="128" x2="111.65311" y1="7.999996" y2="55.909065"><stop offset="0" stop-color="#9a7600"/><stop offset=".09292036" stop-color="#e3ad00"/><stop offset=".5043171" stop-color="#ffcd2c"/><stop offset=".91571385" stop-color="#e3ad00"/><stop offset="1" stop-color="#b98d00"/></linearGradient><g transform="matrix(.1875 0 0 .1875 0 .5)"><path d="m23 9.9655172.0048 9.3418338-10.244776-.0084.03814 19.198993 10.211083.111325.0096 16.777531-10.258804-.04187-.03648 19.184862 10.299556.158815-2.5646 16.571413-7.712706-.01676v19.2702l10.277153.0669.01789 10.41966 95.373184.47566c.375-.375.586-.88402.586-1.41402v-110.0961078h-96z" filter="url(#d)" opacity=".306849" transform="matrix(1.0416667 0 0 1.0357143 -9.958333 -3.321534)"/><rect fill="url(#s)" height="26.568712" rx="3.902046" width="18.796871" x="103.8698" y="88.097954"/><path d="m23 9-.01254 10.374266-10.227459-.07531v19.251748l10.216739.05858-.02326 16.79424-10.193477-.0586v19.251746l10.210333.0251-2.201918 16.994872-7.666617-.0054-.355979 18.902228 7.706046-.0668 2.58896 10.55337 95.373182.186c.375-.375.586-.884.586-1.414l-.00001-110.77204z" filter="url(#d)" opacity=".306849" transform="matrix(1.0416667 0 0 1.0357143 -9.958333 -3.321534)"/><rect fill="url(#t)" height="28" rx="3.902046" transform="scale(1 -1)" width="18.796871" x="103.8698" y="-84"/><path d="m24.919999 10.931136v108.137934h91.574001c.375-.375.586-.884.586-1.414v-106.723934z" filter="url(#e)" opacity=".89589" transform="matrix(1.0416667 0 0 1.0357143 -9.958333 -3.321534)"/><rect fill="url(#u)" height="26.568712" rx="3.902046" width="18.796871" x="103.8698" y="24.097954"/><path d="m16.000002 8v112h95.413998c.375-.375.586-.884.586-1.414v-110.586z" fill="url(#c)"/><path d="m21.333335 13.481267c-.516859 0-.938038.434251-.938038.967152l-.670903 101.792701c0 .53388.42118.96716.938039.96716l86.004377-.0185c.17541-.18086.27484-.42942.27484-.68378v-102.747125c0-.5329-.42024-.967151-.93803-.967151z" fill="url(#b)" stroke-width=".971655"/><rect fill="url(#o)" height="6.279149" rx="3.327495" ry="2.767652" transform="rotate(-90)" width="16" x="-72" y="20.38752"/><path d="m-72-24.000002h16v18.6666667h-16z" fill="url(#n)" transform="matrix(0 -1 -1 0 0 0)"/><path d="m-72-24.000002h15.980886v3.52688h-15.980886z" fill="url(#m)" opacity=".451977" transform="matrix(0 -1 -1 0 0 0)"/><rect fill="url(#r)" height="6.193546" rx="3.327495" ry="2.767652" transform="rotate(-90)" width="15.980884" x="-34.647552" y="20.473122"/><path d="m-34.666667-24.000002h16l.000002 18.6666667h-16.000002z" fill="url(#q)" transform="matrix(0 -1 -1 0 0 0)"/><path d="m24.000002 34.647552v-15.980885h-3.52688v15.980885z" fill="url(#p)" opacity=".451977"/><rect fill="url(#l)" height="6.193546" rx="3.327495" ry="3.096773" transform="rotate(-90)" width="15.999987" x="-109.33333" y="20.473122"/><path d="m-109.35245-24.000002h16.019117l.152916 18.6814507h-16.019113z" fill="url(#k)" transform="matrix(0 -1 -1 0 0 0)"/><path d="m-109.33333-24.000002h15.999997v3.52688h-15.999997z" fill="url(#j)" opacity=".451977" transform="matrix(0 -1 -1 0 0 0)"/><path d="m-109.33333 5.3333353h15.999994v2.528156h-15.999994z" fill="url(#i)" opacity=".638418" transform="rotate(-90)"/><path d="m42.66671 72.000052h53.333292l-.000127 26.666568h-53.33328z" fill="url(#a)" stroke-width="1.781432"/><path d="m31.999987 61.339048c-.000001 15.998097-.000003 31.996192-.000005 47.994292h16.00002v-5.33334h-10.66668v-37.33338h10.66668v-5.33334z"/><path d="m106.66667 61.339048c.00001 15.998097.00001 31.996192.00001 47.994292h-16.000011v-5.33334h10.666671v-37.33338h-10.666671v-5.33334z"/></g></svg>

<?xml version="1.0" encoding="UTF-8" standalone="no"?>
<svg
   xmlns:dc="http://purl.org/dc/elements/1.1/"
   xmlns:cc="http://creativecommons.org/ns#"
   xmlns:rdf="http://www.w3.org/1999/02/22-rdf-syntax-ns#"
   xmlns:svg="http://www.w3.org/2000/svg"
   xmlns="http://www.w3.org/2000/svg"
   xmlns:xlink="http://www.w3.org/1999/xlink"
   xmlns:sodipodi="http://sodipodi.sourceforge.net/DTD/sodipodi-0.dtd"
   xmlns:inkscape="http://www.inkscape.org/namespaces/inkscape"
   enable-background="new 0 0 128 128"
   height="24"
   viewBox="0 0 24 24"
   width="24"
   version="1.1"
   id="svg412"
   sodipodi:docname="lc_insertauthoritiesentry.svg"
   inkscape:version="0.92.4 (unknown)"
   inkscape:export-filename="/home/rizmut/Dokumen/Rizmut/Github/libreoffice-style-karasa-jaga/build/next/cmd/lc_insertauthoritiesentry.png"
   inkscape:export-xdpi="96"
   inkscape:export-ydpi="96">
  <metadata
     id="metadata418">
    <rdf:RDF>
      <cc:Work
         rdf:about="">
        <dc:format>image/svg+xml</dc:format>
        <dc:type
           rdf:resource="http://purl.org/dc/dcmitype/StillImage" />
        <dc:title></dc:title>
      </cc:Work>
    </rdf:RDF>
  </metadata>
  <defs
     id="defs416">
    <linearGradient
       id="c-3"
       gradientTransform="matrix(1.6363601,0,0,1.4960829,-178.79304,-76.583031)"
       gradientUnits="userSpaceOnUse"
       x1="154.28152"
       x2="154.44292"
       y1="104.82231"
       y2="130.74823">
      <stop
         offset="0"
         stop-color="#4c78fd"
         id="stop20" />
      <stop
         offset="1"
         stop-color="#85a2fe"
         id="stop22" />
    </linearGradient>
  </defs>
  <sodipodi:namedview
     pagecolor="#ffffff"
     bordercolor="#666666"
     borderopacity="1"
     objecttolerance="10"
     gridtolerance="10"
     guidetolerance="10"
     inkscape:pageopacity="0"
     inkscape:pageshadow="2"
     inkscape:window-width="1366"
     inkscape:window-height="706"
     id="namedview414"
     showgrid="true"
     inkscape:snap-global="true"
     inkscape:zoom="10.429825"
     inkscape:cx="7.4515971"
     inkscape:cy="15.042568"
     inkscape:window-x="0"
     inkscape:window-y="0"
     inkscape:window-maximized="1"
     inkscape:current-layer="g410">
    <inkscape:grid
       type="xygrid"
       id="grid420" />
  </sodipodi:namedview>
  <radialGradient
     id="a"
     cx="121.21739"
     cy="133.25926"
     gradientTransform="matrix(0.93803929,0,0,0.96715161,2.8192957,2.1172354)"
     gradientUnits="userSpaceOnUse"
     r="139.55859">
    <stop
       offset="0"
       stop-color="#c3c4c6"
       id="stop2" />
    <stop
       offset=".11366145"
       stop-color="#c5c6c7"
       id="stop4" />
    <stop
       offset=".20296688"
       stop-color="#ececec"
       id="stop6" />
    <stop
       offset=".2363"
       stop-color="#fafafa"
       id="stop8" />
    <stop
       offset=".2722"
       stop-color="#fff"
       id="stop10" />
    <stop
       offset=".5313"
       stop-color="#fafafa"
       id="stop12" />
    <stop
       offset=".8449"
       stop-color="#ebecec"
       id="stop14" />
    <stop
       offset="1"
       stop-color="#e1e2e3"
       id="stop16" />
  </radialGradient>
  <radialGradient
     id="b"
     cx="136"
     cy="140"
     gradientUnits="userSpaceOnUse"
     r="139.5585">
    <stop
       offset="0"
       stop-color="#00537d"
       id="stop19" />
    <stop
       offset=".0151"
       stop-color="#186389"
       id="stop21" />
    <stop
       offset=".0558"
       stop-color="#558ca8"
       id="stop23" />
    <stop
       offset=".0964"
       stop-color="#89afc3"
       id="stop25" />
    <stop
       offset=".1357"
       stop-color="#b3ccd8"
       id="stop27" />
    <stop
       offset=".1737"
       stop-color="#d4e2e9"
       id="stop29" />
    <stop
       offset=".2099"
       stop-color="#ecf2f5"
       id="stop31" />
    <stop
       offset=".2435"
       stop-color="#fafcfd"
       id="stop33" />
    <stop
       offset=".2722"
       stop-color="#fff"
       id="stop35" />
  </radialGradient>
  <filter
     id="c">
    <feGaussianBlur
       stdDeviation="1.0394514"
       id="feGaussianBlur38" />
  </filter>
  <filter
     id="d">
    <feGaussianBlur
       stdDeviation=".50063244"
       id="feGaussianBlur41" />
  </filter>
  <linearGradient
     id="e">
    <stop
       offset="0"
       stop-color="#fff"
       id="stop44" />
    <stop
       offset="1"
       stop-color="#555"
       id="stop46" />
  </linearGradient>
  <linearGradient
     id="f">
    <stop
       offset="0"
       id="stop49" />
    <stop
       offset="1"
       stop-color="#333"
       id="stop51" />
  </linearGradient>
  <linearGradient
     id="g">
    <stop
       offset="0"
       id="stop54" />
    <stop
       offset="1"
       stop-opacity="0"
       id="stop56" />
  </linearGradient>
  <linearGradient
     id="h"
     gradientTransform="matrix(0.753793,0,0,0.6015334,-124.27428,8.136806)"
     gradientUnits="userSpaceOnUse"
     x1="25.439508"
     x2="25.379547"
     xlink:href="#g"
     y1="-4.6605401"
     y2="-0.22742544" />
  <linearGradient
     id="i"
     gradientTransform="matrix(0.753793,0,0,0.30059615,-124.12137,-22.378011)"
     gradientUnits="userSpaceOnUse"
     x1="21.386999"
     x2="21.386999"
     xlink:href="#g"
     y1="-5.3959069"
     y2="7.910984" />
  <linearGradient
     id="j"
     gradientTransform="matrix(0.753793,0,0,0.739087,-124.12137,-19.825392)"
     gradientUnits="userSpaceOnUse"
     spreadMethod="reflect"
     x1="24"
     x2="24"
     xlink:href="#e"
     y1="8"
     y2="-16.569082" />
  <radialGradient
     id="k"
     cx="24"
     cy="17.363621"
     gradientTransform="matrix(1.1872212,0,0,0.55018351,-134.686,16.276698)"
     gradientUnits="userSpaceOnUse"
     r="10.839936"
     xlink:href="#f" />
  <linearGradient
     id="l"
     gradientTransform="matrix(0.753793,0,0,0.30059613,-84.121377,-22.378011)"
     gradientUnits="userSpaceOnUse"
     x1="25.559429"
     x2="26.693504"
     xlink:href="#g"
     y1="-0.20285299"
     y2="7.910984" />
  <linearGradient
     id="m"
     gradientTransform="matrix(0.753793,0,0,0.739087,-84.121377,-19.825392)"
     gradientUnits="userSpaceOnUse"
     spreadMethod="reflect"
     x1="24"
     x2="24"
     xlink:href="#e"
     y1="8"
     y2="-16.569082" />
  <radialGradient
     id="n"
     cx="24"
     cy="17.363621"
     gradientTransform="matrix(1.1872212,0,0,0.36001,-94.686002,17.697623)"
     gradientUnits="userSpaceOnUse"
     r="10.839936"
     xlink:href="#f" />
  <linearGradient
     id="o"
     gradientTransform="matrix(0,-0.753793,-0.3005961,0,22.851133,44.060687)"
     gradientUnits="userSpaceOnUse"
     x1="25.559429"
     x2="26.693502"
     xlink:href="#g"
     y1="-0.20285299"
     y2="7.910984" />
  <linearGradient
     id="p"
     gradientTransform="matrix(0.753793,0,0,0.739087,-44.121375,-19.825392)"
     gradientUnits="userSpaceOnUse"
     spreadMethod="reflect"
     x1="24"
     x2="24"
     xlink:href="#e"
     y1="8"
     y2="-16.569082" />
  <radialGradient
     id="q"
     cx="24"
     cy="17.363621"
     gradientTransform="matrix(1.1872212,0,0,0.36001,-54.686,17.697623)"
     gradientUnits="userSpaceOnUse"
     r="10.839936"
     xlink:href="#f" />
  <linearGradient
     id="r"
     gradientTransform="matrix(0.9792,0,0,0.9725,133.0002,20.8762)"
     gradientUnits="userSpaceOnUse"
     x1="120.21935"
     x2="111.65311"
     y1="87.939392"
     y2="119.90906">
    <stop
       offset="0"
       stop-color="#72d13d"
       id="stop69" />
    <stop
       offset=".3553"
       stop-color="#35ac1c"
       id="stop71" />
    <stop
       offset=".6194"
       stop-color="#0f9508"
       id="stop73" />
    <stop
       offset=".7574"
       stop-color="#008c00"
       id="stop75" />
    <stop
       offset="1"
       stop-color="#007a00"
       id="stop77" />
  </linearGradient>
  <linearGradient
     id="s"
     gradientUnits="userSpaceOnUse"
     x1="120.21935"
     x2="111.65311"
     y1="-84.158562"
     y2="-52.188889">
    <stop
       offset="0"
       stop-color="#0968ef"
       id="stop80" />
    <stop
       offset="1"
       stop-color="#aecffc"
       id="stop82" />
  </linearGradient>
  <linearGradient
     id="t"
     gradientUnits="userSpaceOnUse"
     x1="128"
     x2="111.65311"
     y1="7.9999962"
     y2="55.909065">
    <stop
       offset="0"
       stop-color="#9a7600"
       id="stop85" />
    <stop
       offset=".09292036"
       stop-color="#e3ad00"
       id="stop87" />
    <stop
       offset=".5043171"
       stop-color="#ffcd2c"
       id="stop89" />
    <stop
       offset=".91571385"
       stop-color="#e3ad00"
       id="stop91" />
    <stop
       offset="1"
       stop-color="#b98d00"
       id="stop93" />
  </linearGradient>
  <g
     transform="matrix(0.1875,0,0,0.1875,-3.75e-7,0.5)"
     id="g410">
    <path
       d="m 23,9.9655172 0.0048,9.3418338 -10.244776,-0.0084 0.03814,19.198993 10.211083,0.111325 0.0096,16.777531 -10.258804,-0.04187 -0.03648,19.184862 10.299556,0.158815 -2.5646,16.571413 -7.712706,-0.01676 v 19.2702 l 10.277153,0.0669 0.01789,10.41966 95.373184,0.47566 c 0.375,-0.375 0.586,-0.88402 0.586,-1.41402 V 9.9655522 h -96 z"
       transform="matrix(1.0416667,0,0,1.0357143,-9.958333,-3.321534)"
       id="path106"
       inkscape:connector-curvature="0"
       style="opacity:0.30684904;filter:url(#c)"
       sodipodi:nodetypes="cccccccccccccccsccc" />
    <rect
       height="26.568712"
       rx="3.902046"
       width="18.796871"
       x="103.8698"
       y="88.097954"
       id="rect96"
       style="fill:url(#r)" />
    <path
       d="m 23,9 -0.01254,10.374266 -10.227459,-0.07531 0,19.251748 10.216739,0.05858 -0.02326,16.79424 -10.193477,-0.0586 V 74.59667 l 10.210333,0.0251 -2.201918,16.994872 -7.666617,-0.0054 -0.355979,18.902228 7.706046,-0.0668 2.58896,10.55337 95.373182,0.186 c 0.375,-0.375 0.586,-0.884 0.586,-1.414 L 119,9 Z"
       transform="matrix(1.0416667,0,0,1.0357143,-9.958333,-3.321534)"
       id="path98"
       inkscape:connector-curvature="0"
       style="opacity:0.30684904;filter:url(#c)"
       sodipodi:nodetypes="cccccccccccccccscc" />
    <rect
       height="28"
       rx="3.902046"
       transform="scale(1,-1)"
       width="18.796871"
       x="103.8698"
       y="-84"
       id="rect100"
       style="fill:url(#s)" />
    <path
       d="M 24.919999,10.931136 V 119.06907 H 116.494 c 0.375,-0.375 0.586,-0.884 0.586,-1.414 V 10.931136 Z"
       transform="matrix(1.0416667,0,0,1.0357143,-9.958333,-3.321534)"
       id="path102"
       inkscape:connector-curvature="0"
       style="opacity:0.89589;filter:url(#d)"
       sodipodi:nodetypes="cccscc" />
    <rect
       height="26.568712"
       rx="3.902046"
       width="18.796871"
       x="103.8698"
       y="24.097954"
       id="rect104"
       style="fill:url(#t)" />
    <path
       d="M 16.000002,8 V 120 H 111.414 c 0.375,-0.375 0.586,-0.884 0.586,-1.414 V 8 Z"
       id="path108"
       style="fill:url(#b)"
       inkscape:connector-curvature="0"
       sodipodi:nodetypes="cccscc" />
    <path
       d="m 21.333335,13.481267 c -0.516859,0 -0.938038,0.434251 -0.938038,0.967152 L 19.724394,116.24112 c 0,0.53388 0.42118,0.96716 0.938039,0.96716 l 86.004377,-0.0185 c 0.17541,-0.18086 0.27484,-0.42942 0.27484,-0.68378 V 13.758875 c 0,-0.5329 -0.42024,-0.967151 -0.93803,-0.967151 z"
       id="path110"
       style="fill:url(#a);stroke-width:0.97165543"
       inkscape:connector-curvature="0"
       sodipodi:nodetypes="cccccsscc" />
    <rect
       height="6.2791491"
       rx="3.3274951"
       ry="2.767652"
       transform="rotate(-90)"
       width="16"
       x="-72"
       y="20.38752"
       id="rect112"
       style="fill:url(#n)" />
    <path
       d="m -72,-24.000002 h 16 v 18.6666667 h -16 z"
       transform="matrix(0,-1,-1,0,0,0)"
       id="path114"
       style="fill:url(#m)"
       inkscape:connector-curvature="0"
       sodipodi:nodetypes="ccccc" />
    <path
       d="m -72,-24.000002 h 15.980886 v 3.52688 H -72 Z"
       transform="matrix(0,-1,-1,0,0,0)"
       id="path116"
       style="opacity:0.451977;fill:url(#l)"
       inkscape:connector-curvature="0"
       sodipodi:nodetypes="ccccc" />
    <rect
       height="6.1935458"
       rx="3.3274951"
       ry="2.767652"
       transform="rotate(-90)"
       width="15.980884"
       x="-34.647552"
       y="20.473122"
       id="rect118"
       style="fill:url(#q)" />
    <path
       d="m -34.666667,-24.000002 16,0 2e-6,18.6666667 -16.000002,0 z"
       transform="matrix(0,-1,-1,0,0,0)"
       id="path120"
       style="fill:url(#p)"
       inkscape:connector-curvature="0"
       sodipodi:nodetypes="ccccc" />
    <path
       d="m 24.000002,34.647552 0,-15.980885 h -3.52688 l 0,15.980885 z"
       id="path122"
       style="opacity:0.451977;fill:url(#o)"
       inkscape:connector-curvature="0"
       sodipodi:nodetypes="ccccc" />
    <rect
       height="6.1935458"
       rx="3.3274951"
       ry="3.0967729"
       transform="rotate(-90)"
       width="15.999987"
       x="-109.33333"
       y="20.473122"
       id="rect124"
       style="fill:url(#k)" />
    <path
       d="m -109.35245,-24.000002 h 16.019117 l 0.152916,18.6814507 h -16.019113 z"
       transform="matrix(0,-1,-1,0,0,0)"
       id="path126"
       style="fill:url(#j)"
       inkscape:connector-curvature="0"
       sodipodi:nodetypes="ccccc" />
    <path
       d="m -109.33333,-24.000002 h 15.999997 v 3.52688 h -15.999997 z"
       transform="matrix(0,-1,-1,0,0,0)"
       id="path128"
       style="opacity:0.451977;fill:url(#i)"
       inkscape:connector-curvature="0"
       sodipodi:nodetypes="ccccc" />
    <path
       d="m -109.33333,5.3333353 15.999994,0 v 2.528156 l -15.999994,0 z"
       id="path130"
       style="opacity:0.63841804;fill:url(#h)"
       inkscape:connector-curvature="0"
       transform="rotate(-90)"
       sodipodi:nodetypes="ccccc" />
    <path
       inkscape:connector-curvature="0"
       style="fill:url(#c-3);stroke-width:1.78143227"
       d="M 42.66671,72.000052 H 96.000002 L 95.999875,98.66662 H 42.666595 Z"
       id="path65" />
    <path
       style="stroke-width:1"
       inkscape:connector-curvature="0"
       d="m 31.999987,61.339048 c -1e-6,15.998097 -3e-6,31.996192 -5e-6,47.994292 h 16.00002 V 104 H 37.333322 V 66.66662 h 10.66668 v -5.33334 z"
       id="path67" />
    <path
       style="stroke-width:1"
       inkscape:connector-curvature="0"
       d="m 106.66667,61.339048 c 1e-5,15.998097 1e-5,31.996192 1e-5,47.994292 H 90.666669 V 104 H 101.33334 V 66.66662 H 90.666669 v -5.33334 z"
       id="path69" />
  </g>
</svg>
